!!!ONB: MCCC : IJH0440_04 : Extracted Monophonic Melody
!!!COM: Haydn, Joseph
!!!OPR: String Quartet in E major
!!!OMV: 4
!!!SCT: Hob.III:59 ; Op.54 No.3
!!!ODT: 1788///
**kern
*thru
*k[f#c#g#d#]
*E:
*clefG
*M2/4
16ccc#
16bb
16aa
16gg#
16ff#
16ee
=10
4dd#
4r
=11
8r
16ee
16ff#
16gg#
16aa
16bb
16ccc#
=12
4bb
8ccc#
16bb
16ccc#
=13
8bb
8eee
8ccc#
8aa
=14
8gg#
8bb
8ff#
8bb
=15
2ee
=16
2ee[
=17
8ee]
8ee
8ff#
8gg#
=18
8aa
8ccc#
8ff#
8aa
=19
8gg#
8ee
8ee
8ee
=20
2ee[
=21
8ee]
8ee
8ff#
8gg#
=22
8aa
8ccc#
8ff#
8aa
=23
8gg#
8gg#
8aa
8bb
=24
8ccc#
8eee
8aa
8ccc#
=25
2bb
=26
2bb
=27
2bb[
=28
8bb]
8aa#
8ccc#
8ee
=29
8dd#
8b
8dd#
8ff#
=30
8aa#
8ccc#
8bb
8aa
=31
8ff##
8gg#
8dd#
8ee
=32
8b#
8cc#
8g#
8b
=33
8a#
8b
8cc#
8cc#
=34
4dd#
8ee
16dd#
16ee
=35
8ff#
8bb
8bb
8cc#
=36
4dd#
8ee
16dd#
16ee
=37
8ff#
8bb
8bb
8ff#
=38
4gg#
8aa
16gg#
16aa
=39
8bb
8eee
8eee
8eee
=40
4eee
4ddd#
=41
8ccc#
8ccc#
8ddd#
8bb
=42
8aa#
8ff#
8ff#
8ff#
=43
8ee#
8ff#
8ee
8cc#
=44
4b
8cc#
16b
16cc#
=45
8b
8ff#
8ff#
8ff#
=46
4b
8cc#
16b
16cc#
=47
8b
8ff#
8ff#
8ff#
=48
8b
8aa
8aa
8aa
=49
8b
8gg#
8gg#
8gg#
=50
8cc#
8aa#
8aa#
8aa#
=51
16b
16bb
16bb
16bb
16cc#
16ccc#
16ccc#
16ccc#
=52
16dd#
16ddd#
16ddd#
16ddd#
16ee
16eee
16eee
16eee
=53
16ff#
16fff#
16fff#
16fff#
16fff#
16ddd#
16bb
16ff#
=54
16dd#
16ff#
16ff#
16ff#
16b
16dd#
16dd#
16dd#
=55
16cc#
16eee
16eee
16eee
16eee
16ddd#
16ccc#
16bb
=56
16aa#
16bb
16ccc#
16bb
16aa#
16gg#
16ff#
16ee
=57
16dd#
16fff#
16fff#
16fff#
16fff#
16ddd#
16bb
16ff#
=58
16dd#
16ff#
16ff#
16ff#
16b
16dd#
16dd#
16dd#
=59
16cc#
16eee
16eee
16eee
16eee
16ddd#
16ccc#
16bb
=60
16aa#
16bb
16ccc#
16bb
16aa#
16gg#
16ff#
16ee
=61
16dd#
16ff#
16ff#
16ff#
16ff#
16bb
16bb
16bb
=62
16bb
16b
16bb
16b
16aa
16b
16aa
16b
=63
8aa
8ff##
8gg#
8aa#
=64
8bb
8bb#
8ccc#
8ddd#
=65
8eee
8fff#
8ggg#
8aaa#
=66
8bbb
8cccc#
8dddd#
8e#
=67
8f#
16ee#
16ff#
16ee#
16ff#
16ee#
16ff#
=68
16bb
16aa#
16gg#
16ff#
16ee
16dd#
16cc#
16b
=69
2cc#[
=70
4.cc#]
16b
16cc#
=71
2b[
=72
2b]
=73
16a#
16b
16cc#
16dd#
16ee
16cc#
16ee
16cc#
=74
16b
16cc#
16dd#
16ee
16ff#
16dd#
16ff#
16dd#
=75
2b[
=76
2b]
=77
16a#
16b
16cc#
16dd#
16ee
16cc#
16ee
16cc#
=78
16b
16cc#
16dd#
16ee
16ff#
16dd#
16ff#
16dd#
=79
16a#
16b
16cc#
16dd#
16ee
16cc#
16ee
16cc#
=80
8b
8r
8bb
8r
=81
4B
4r
=82
2r
=83
8r
16aa
16gg#
16ff#
16ee
16dd#
16cc#
=84
4b#
4r
=85
8r
16gg#
16ff#
16ee
16dd#
16cc#
16b#
=86
4cc#
4r
=87
8r
16b#
16cc#
16dd#
16ee
16ff#
16dd#
=88
8cc#
16cc#
16dd#
16ee
16ff#
16gg#
16ee
=89
8dd#
8gg#
8gg#
8gg#
=90
8gg#
8gg#
8gg#
8gg#
=91
2gg#
=92
2gg#[
=93
2gg#]
=94
4gg#
8aa
16gg#
16aa
=95
8ff#
8ccc#
8ccc#
8ccc#
=96
4ff#
8gg#
16ff#
16gg#
=97
8ee
8bb
8bb
8bb
=98
4b
8cc#
16b
16cc#
=99
8b
8ee
8ee
8ee
=100
8b
8ee#
8ee#
8ee#
=101
8a
8ff#
8ff#
8ff#
=102
4cc#
8dd
16cc#
16dd
=103
8cc#
8ff#
8ff#
8ff#
=104
8cc#
8ff##
8ff##
8ff##
=105
8b
8gg#
8gg#
8gg#
=106
8dd#
8ddd#
8ddd#
8ddd#
=107
8dd#
8ccc#
8ccc#
8ccc#
=108
8dd#
8bb
8bb
8bb
=109
8aa#
8ff##
8dd#
8dd#
=110
4dd#
8ee
16dd#
16ee
=111
8cc#
8eee
8eee
8eee
=112
4cc#
8dd#
16cc#
16dd#
=113
8b
8ddd#
8ddd#
8ddd#
=114
4b
8cc#
16b
16cc#
=115
8a#
8ccc#
8ccc#
8ccc#
=116
8r
8aa#
8aa#
8aa#
=117
8r
8bb
8bb
8bb
=118
8r
8aa
8aa
8aa
=119
8r
8gg#
8gg#
8gg#
=120
8r
8ff#
8ff#
8ff#
=121
8r
8ee
8ee
8ee
=122
8r
8cc#
8cc#
8cc#
=123
8b#
8g#
8g#
8g#
=124
8g#
8a
8f#
8d#
=125
2cc#[
=126
8cc#]
8b#
8b#
8b#
=127
4dd#
8ee
16dd#
16ee
=128
8dd#
8cc#
8cc#
8cc#
=129
8cc#
8b
8b
8b
=130
8b
8a
8a
8a
=131
8a
8g#
8g#
8g#
=132
8g#
8f#
8f#
8e
=133
4d#
8e
16d#
16e
=134
4f#
4r
=135
4f#
8g#
16f#
16g#
=136
4a
4r
=137
4dd#
8ee
16dd#
16ee
=138
4ff#
4r
=139
4ff#
8gg#
16ff#
16gg#
=140
2aa[
=141
8aa]
8dd#
8dd#
8dd#
=142
8ccc
8dd#
8dd#
8dd#
=143
8bb
8ee
8ee
8ee
=144
8ddd
8ee#
8ee#
8ee#
=145
8ccc#
8ff#
8ff#
8ff#
=146
2r
=147
2r
=148
4ff#
8gg#
16ff#
16gg#
=149
8ff#
8ccc#
8ccc#
8ccc#
=150
2r
=151
2r
=152
4ff#
8gg
16ff#
16gg
=153
8ee
8bb
8bb
8bb
=154
8ee
8ddd
8ddd
8ddd
=155
8ee
8ccc#
8ccc#
8ccc#
=156
8ff#
8ddd#
8ddd#
8ddd#
=157
8ee
8eee
8eee
8eee
=158
8ff#
8aa#
8aa#
8aa#
=159
8dd#
8bb
8bb
8bb
=160
4bb
8ccc#
16bb
16ccc#
=161
8aa
8fff#
8fff#
8fff#
=162
4aa
8bb
16aa
16bb
=163
8gg#
8eee
8eee
8eee
=164
2r
=165
2r
=166
4e
8f#
16e
16f#
=167
8e
8b
8b
8b
=168
8e
8dd
8dd
8dd
=169
8e
8cc#
8cc#
8cc#
=170
8f#
8dd#
8dd#
8dd#
=171
16e
16ee
16ee
16ee
16f#
16ff#
16ff#
16ff#
=172
16g#
16gg#
16gg#
16gg#
16a
16aa
16aa
16aa
=173
16b
16bb
16bb
16bb
16bb
16gg#
16ee
16b
=174
16g#
16b
16b
16b
16e
16g#
16g#
16g#
=175
16f#
16aa
16aa
16aa
16aa
16gg#
16ff#
16ee
=176
16dd#
16ee
16ff#
16ee
16dd#
16cc#
16b
16a
=177
16g#
16bb
16bb
16bb
16bb
16gg#
16ee
16b
=178
16g#
16b
16b
16b
16e
16g#
16g#
16g#
=179
16f#
16aa
16aa
16aa
16aa
16gg#
16ff#
16ee
=180
16dd#
16ee
16ff#
16ee
16dd#
16cc#
16b
16a
=181
16g#
16bb
16bb
16bb
16bb
16gg#
16ee
16b
=182
16a
16ccc#
16ccc#
16ccc#
16ccc#
16aa
16ff#
16ee
=183
16dd#
16fff#
16fff#
16fff#
16fff#
16ddd#
16bb
16aa
=184
16gg#
16bbb
16bbb
16bbb
16bbb
16ggg#
16eee
16bb
=185
16ccc#
16eee
16ccc#
16eee
16aa
16ccc#
16aa
16ccc#
=186
16ff#
16aa
16ff#
16aa
16dd#
16ff#
16dd#
16ff#
=187
16a
16dd#
16ff#
16dd#
16aa
16dd#
16ff#
16dd#
=188
16a
16dd#
16ff#
16dd#
16aa
16dd#
16ff#
16dd#
=189
8a
8b
8dd#
8ff#
=190
8aa
8bb
8ccc#
8bb
=191
4aa
4aa
=192
4aa
4aa
=193
2aa
=194
4e
8f#
16e
16f#
=195
8e
8b
8b
8b
=196
2r
=197
8f
8cc
8cc
8cc
=198
8g#
8dd
8dd
8dd
=199
8a
8ee
8ee
8ee
=200
8a#
8ee
8ee
8ee
=201
16b
16ee
16ee
16ee
16ee
16gg#
16gg#
16gg#
=202
16gg#
16bb
16bb
16bb
16bb
16eee
16eee
16eee
=203
16eee
16ddd#
16eee
16ddd#
16eee
16ddd#
16eee
16ddd#
=204
16eee
16ddd#
16ccc#
16bb
16aa
16gg#
16ff#
16ee
=205
2ff#[
=206
4.ff#]
16ee
16ff#
=207
2ee[
=208
2ee]
=209
16dd#
16ee
16ff#
16gg#
16aa
16ff#
16aa
16ff#
=210
16ee
16ff#
16gg#
16aa
16bb
16gg#
16bb
16gg#
=211
2ee[
=212
2ee]
=213
16dd#
16ee
16ff#
16gg#
16aa
16ff#
16aa
16ff#
=214
16ee
16ff#
16gg#
16aa
16bb
16gg#
16bb
16gg#
=215
16dd#
16ee
16ff#
16gg#
16aa
16ff#
16aa
16ff#
=216
4ee
4gg#
=217
4ee
4r
==
*-
